build/Karasa-Jaga/scalable/apps/gnome-sudoku-symbolic.svg

<svg height="16" width="16" xmlns="http://www.w3.org/2000/svg"><path d="m1.140625 1.0507812c-.0309882.0291239-.0607197.0588558-.0898438.0898438v13.707031c.0308316.033112.0569013.070551.0898438.101563h13.71875c.030988-.029124.06072-.058856.089844-.089844v-13.7070312c-.030832-.0331118-.056901-.0705512-.089844-.1015626zm1.359375 1.4492188h1.5 1.5v3h-3v-1.5zm4 0h3v1.5625 1.4375h-1.4375-1.5625zm4 0h.5625 2.4375v2.46875.53125h-.53125-2.46875v-2.4375zm-8 4h3v1.53125 1.46875h-1.46875-1.53125zm4 0h.5625 2.4375v2.4375.5625h-.5625-2.4375v-2.4375zm4 0h1.46875 1.53125v3h-3v-1.53125zm-8 4h.53125 2.46875v2.4375.5625h-.5625-2.4375v-2.46875zm4 0h1.4375 1.5625v3h-3v-1.5625zm4 0h3v1.5 1.5h-1.5-1.5z" fill="#bebebe"/></svg>

<?xml version="1.0" encoding="UTF-8" standalone="no"?>
<!-- Created with Inkscape (http://www.inkscape.org/) -->

<svg
   xmlns:dc="http://purl.org/dc/elements/1.1/"
   xmlns:cc="http://creativecommons.org/ns#"
   xmlns:rdf="http://www.w3.org/1999/02/22-rdf-syntax-ns#"
   xmlns:svg="http://www.w3.org/2000/svg"
   xmlns="http://www.w3.org/2000/svg"
   xmlns:xlink="http://www.w3.org/1999/xlink"
   xmlns:sodipodi="http://sodipodi.sourceforge.net/DTD/sodipodi-0.dtd"
   xmlns:inkscape="http://www.inkscape.org/namespaces/inkscape"
   id="svg7384"
   height="16"
   width="16"
   version="1.1"
   inkscape:version="0.92.2 (unknown)"
   sodipodi:docname="ssudoku-symbolic.svg">
  <defs
     id="defs7527">
    <inkscape:perspective
       id="perspective18"
       inkscape:persp3d-origin="8 : 5.3333333 : 1"
       inkscape:vp_z="16 : 8 : 1"
       inkscape:vp_y="0 : 1000 : 0"
       inkscape:vp_x="0 : 8 : 1"
       sodipodi:type="inkscape:persp3d" />
    <linearGradient
       gradientUnits="userSpaceOnUse"
       y2="13.168831"
       x2="5.8043289"
       y1="4.7809148"
       x1="5.8043289"
       gradientTransform="scale(1.1952286,0.83666)"
       id="StandardGradient">
      <stop
         id="stop3389"
         offset="0"
         style="stop-color:#000000;stop-opacity:0.86274511;" />
      <stop
         id="stop3391"
         offset="1"
         style="stop-color:#000000;stop-opacity:0.47058824;" />
    </linearGradient>
    <inkscape:perspective
       sodipodi:type="inkscape:persp3d"
       inkscape:vp_x="0 : 0.5 : 1"
       inkscape:vp_y="0 : 1000 : 0"
       inkscape:vp_z="1 : 0.5 : 1"
       inkscape:persp3d-origin="0.5 : 0.33333333 : 1"
       id="perspective3648" />
    <linearGradient
       y2="13.168831"
       x2="5.8043289"
       y1="4.7809148"
       x1="5.8043289"
       gradientTransform="matrix(-1.1952286,0,0,0.83666,-25,0)"
       gradientUnits="userSpaceOnUse"
       id="linearGradient3627"
       xlink:href="#StandardGradient"
       inkscape:collect="always" />
    <clipPath
       id="clipPath3634"
       clipPathUnits="userSpaceOnUse">
      <path
         id="path3636"
         d="m -20,0 0,16 16,0 0,-16 -16,0 z m 2,4 5,3.34375 L -13,4 -8,7.34375 -8,4 -6,4 -6,12 -8,12 -8,8.65625 -13,12 -13,8.65625 -18,12 -18,4 z"
         style="fill:#ff00ff;fill-opacity:1;stroke:none;display:inline" />
    </clipPath>
    <linearGradient
       y2="13.168831"
       x2="5.8043289"
       y1="4.7809148"
       x1="5.8043289"
       gradientTransform="matrix(-1.1952286,0,0,0.83666,-5,0)"
       gradientUnits="userSpaceOnUse"
       id="linearGradient5025"
       xlink:href="#StandardGradient"
       inkscape:collect="always" />
    <clipPath
       id="clipPath40"
       clipPathUnits="userSpaceOnUse">
      <path
         id="path42"
         d="M 0,500 1024,500 1024,0 0,0 0,500 Z"
         inkscape:connector-curvature="0" />
    </clipPath>
    <clipPath
       id="clipPath18"
       clipPathUnits="userSpaceOnUse">
      <path
         id="path20"
         d="M 0,2743.88 0,0 l 2743.81,0 0,2743.88 -2743.81,0 z"
         inkscape:connector-curvature="0" />
    </clipPath>
  </defs>
  <sodipodi:namedview
     pagecolor="#ffffff"
     bordercolor="#666666"
     borderopacity="1"
     objecttolerance="10"
     gridtolerance="10"
     guidetolerance="10"
     inkscape:pageopacity="0"
     inkscape:pageshadow="2"
     inkscape:window-width="1366"
     inkscape:window-height="716"
     id="namedview7525"
     showgrid="false"
     inkscape:zoom="10.429825"
     inkscape:cx="2.7772672"
     inkscape:cy="4.8499637"
     inkscape:window-x="0"
     inkscape:window-y="27"
     inkscape:window-maximized="1"
     inkscape:current-layer="svg7384" />
  <metadata
     id="metadata90">
    <rdf:RDF>
      <cc:Work
         rdf:about="">
        <dc:format>image/svg+xml</dc:format>
        <dc:type
           rdf:resource="http://purl.org/dc/dcmitype/StillImage" />
        <dc:title>Gnome Symbolic Icon Theme</dc:title>
      </cc:Work>
    </rdf:RDF>
  </metadata>
  <title
     id="title9167">Gnome Symbolic Icon Theme</title>
  <path
     style="opacity:1;fill:#bebebe;fill-opacity:1;stroke:none;stroke-width:1.04060912"
     d="M 1.140625 1.0507812 C 1.1096368 1.0799051 1.0799053 1.109637 1.0507812 1.140625 L 1.0507812 14.847656 C 1.0816128 14.880768 1.1076825 14.918207 1.140625 14.949219 L 14.859375 14.949219 C 14.890363 14.920095 14.920095 14.890363 14.949219 14.859375 L 14.949219 1.1523438 C 14.918387 1.119232 14.892318 1.0817926 14.859375 1.0507812 L 1.140625 1.0507812 z M 2.5 2.5 L 4 2.5 L 5.5 2.5 L 5.5 5.5 L 2.5 5.5 L 2.5 4 L 2.5 2.5 z M 6.5 2.5 L 9.5 2.5 L 9.5 4.0625 L 9.5 5.5 L 8.0625 5.5 L 6.5 5.5 L 6.5 2.5 z M 10.5 2.5 L 11.0625 2.5 L 13.5 2.5 L 13.5 4.96875 L 13.5 5.5 L 12.96875 5.5 L 10.5 5.5 L 10.5 3.0625 L 10.5 2.5 z M 2.5 6.5 L 5.5 6.5 L 5.5 8.03125 L 5.5 9.5 L 4.03125 9.5 L 2.5 9.5 L 2.5 6.5 z M 6.5 6.5 L 7.0625 6.5 L 9.5 6.5 L 9.5 8.9375 L 9.5 9.5 L 8.9375 9.5 L 6.5 9.5 L 6.5 7.0625 L 6.5 6.5 z M 10.5 6.5 L 11.96875 6.5 L 13.5 6.5 L 13.5 9.5 L 10.5 9.5 L 10.5 7.96875 L 10.5 6.5 z M 2.5 10.5 L 3.03125 10.5 L 5.5 10.5 L 5.5 12.9375 L 5.5 13.5 L 4.9375 13.5 L 2.5 13.5 L 2.5 11.03125 L 2.5 10.5 z M 6.5 10.5 L 7.9375 10.5 L 9.5 10.5 L 9.5 13.5 L 6.5 13.5 L 6.5 11.9375 L 6.5 10.5 z M 10.5 10.5 L 13.5 10.5 L 13.5 12 L 13.5 13.5 L 12 13.5 L 10.5 13.5 L 10.5 10.5 z "
     id="rect1244" />
</svg>
